Newaita/actions/32/zoom-out-y.svg

<svg height="32" viewBox="0 0 32 32" width="32" xmlns="http://www.w3.org/2000/svg"><g fill="#424242"><path d="m26.460938 2.894531c1.464843 0 2.644531 1.183594 2.644531 2.648438v5.292969h-2.644531v-3.972657c0-.730469-.589844-1.320312-1.324219-1.320312h-3.96875v-2.648438zm-21.167969 18.523438v3.96875c0 .734375.589843 1.324219 1.320312 1.324219h3.972657v2.644531h-5.292969c-1.464844 0-2.648438-1.179688-2.648438-2.644531v-5.292969zm0 0"/><path d="m3.96875 2.894531c-.734375 0-1.324219.589844-1.324219 1.324219v7.9375c0 .734375.589844 1.324219 1.324219 1.324219h7.9375c.734375 0 1.324219-.589844 1.324219-1.324219v-7.9375c0-.734375-.589844-1.324219-1.324219-1.324219zm1.984375 2.648438h3.96875c.367187 0 .664063.292969.664063.660156v3.96875c0 .367187-.296876.664063-.664063.664063h-3.96875c-.367187 0-.660156-.296876-.660156-.664063v-3.96875c0-.367187.292969-.660156.660156-.660156zm0 0"/><path d="m25.800781 23.402344h-2.648437v-6.597656c0-.367188.296875-.660157.664062-.660157h1.320313c.367187 0 .664062.292969.664062.660157zm0 0"/><path d="m19.84375 22.742188h9.261719l-4.628907 6.613281zm0 0"/></g></svg>

<svg xmlns="http://www.w3.org/2000/svg" xmlns:xlink="http://www.w3.org/1999/xlink" width="32px" height="32px" viewBox="0 0 32 32" version="1.1">
<g id="surface1">
     <defs>
  <style id="current-color-scheme" type="text/css">
   .ColorScheme-Text { color:#424242; } .ColorScheme-Highlight { color:#eeeeee; }
  </style>
 </defs>
<path style="fill:currentColor" class="ColorScheme-Text" d="M 26.460938 2.894531 C 27.925781 2.894531 29.105469 4.078125 29.105469 5.542969 L 29.105469 10.835938 L 26.460938 10.835938 L 26.460938 6.863281 C 26.460938 6.132812 25.871094 5.542969 25.136719 5.542969 L 21.167969 5.542969 L 21.167969 2.894531 Z M 5.292969 21.417969 L 5.292969 25.386719 C 5.292969 26.121094 5.882812 26.710938 6.613281 26.710938 L 10.585938 26.710938 L 10.585938 29.355469 L 5.292969 29.355469 C 3.828125 29.355469 2.644531 28.175781 2.644531 26.710938 L 2.644531 21.417969 Z M 5.292969 21.417969 "/>
     <defs>
  <style id="current-color-scheme" type="text/css">
   .ColorScheme-Text { color:#424242; } .ColorScheme-Highlight { color:#eeeeee; }
  </style>
 </defs>
<path style="fill:currentColor" class="ColorScheme-Text" d="M 3.96875 2.894531 C 3.234375 2.894531 2.644531 3.484375 2.644531 4.21875 L 2.644531 12.15625 C 2.644531 12.890625 3.234375 13.480469 3.96875 13.480469 L 11.90625 13.480469 C 12.640625 13.480469 13.230469 12.890625 13.230469 12.15625 L 13.230469 4.21875 C 13.230469 3.484375 12.640625 2.894531 11.90625 2.894531 Z M 5.953125 5.542969 L 9.921875 5.542969 C 10.289062 5.542969 10.585938 5.835938 10.585938 6.203125 L 10.585938 10.171875 C 10.585938 10.539062 10.289062 10.835938 9.921875 10.835938 L 5.953125 10.835938 C 5.585938 10.835938 5.292969 10.539062 5.292969 10.171875 L 5.292969 6.203125 C 5.292969 5.835938 5.585938 5.542969 5.953125 5.542969 Z M 5.953125 5.542969 "/>
     <defs>
  <style id="current-color-scheme" type="text/css">
   .ColorScheme-Text { color:#424242; } .ColorScheme-Highlight { color:#eeeeee; }
  </style>
 </defs>
<path style="fill:currentColor" class="ColorScheme-Text" d="M 25.800781 23.402344 L 23.152344 23.402344 L 23.152344 16.804688 C 23.152344 16.4375 23.449219 16.144531 23.816406 16.144531 L 25.136719 16.144531 C 25.503906 16.144531 25.800781 16.4375 25.800781 16.804688 Z M 25.800781 23.402344 "/>
     <defs>
  <style id="current-color-scheme" type="text/css">
   .ColorScheme-Text { color:#424242; } .ColorScheme-Highlight { color:#eeeeee; }
  </style>
 </defs>
<path style="fill:currentColor" class="ColorScheme-Text" d="M 19.84375 22.742188 L 29.105469 22.742188 L 24.476562 29.355469 Z M 19.84375 22.742188 "/>
</g>
</svg>
